data/resources/icon/scalable/actions/language-symbolic.svg

<svg viewBox="0 0 16 16"><path fill="#2e3436" d="M2 0C.892 0 0 .892 0 2v9c0 1.108.892 2 2 2h2v3l3-3h7c1.108 0 2-.892 2-2V2c0-1.108-.892-2-2-2Zm6 2c1.6450096 0 3 1.3549904 3 3 0 1.2931586-.84267 2.3951413-2 2.8125V8c0 .554-.446 1-1 1s-1-.446-1-1V7c0-.554.446-1 1-1 .5641294 0 1-.4358706 1-1s-.4358706-1-1-1-1 .4358706-1 1c0 .5522847-.4477153 1-1 1s-1-.4477153-1-1c-.0000391-.06624.0065-.1323196.019531-.1972656C5.1243286 3.2496564 6.4224088 2 8 2m0 7.5c.5522847 0 1 .4477153 1 1 0 .552285-.4477153 1-1 1s-1-.447715-1-1c0-.5522847.4477153-1 1-1" overflow="visible" style="marker:none"/></svg>

<svg xmlns="http://www.w3.org/2000/svg" width="16" height="16"><path d="M 2,0 C 0.892,0 0,0.892 0,2 v 9 c 0,1.108 0.892,2 2,2 h 2 v 3 l 3,-3 h 7 c 1.108,0 2,-0.892 2,-2 V 2 C 16,0.892 15.108,0 14,0 Z m 6,2 c 1.6450096,0 3,1.3549904 3,3 0,1.2931586 -0.84267,2.3951413 -2,2.8125 V 8 C 9,8.554 8.554,9 8,9 7.446,9 7,8.554 7,8 V 7 C 7,6.446 7.446,6 8,6 8.5641294,6 9,5.5641294 9,5 9,4.4358706 8.5641294,4 8,4 7.4358706,4 7,4.4358706 7,5 7,5.5522847 6.5522847,6 6,6 5.4477153,6 5,5.5522847 5,5 4.9999609,4.93376 5.0065,4.8676804 5.019531,4.8027344 5.1243286,3.2496564 6.4224088,2 8,2 Z m 0,7.5 c 0.5522847,0 1,0.4477153 1,1 0,0.552285 -0.4477153,1 -1,1 -0.5522847,0 -1,-0.447715 -1,-1 0,-0.5522847 0.4477153,-1 1,-1 z" style="marker:none" overflow="visible" fill="#2e3436"/></svg>
